X: 4601
T: Boundary, The
R: reel
M: 4/4
K: Dmajor
A2|:d2 dA BAFA|BAFA BA A2|d2 dA BAFA|FAFE FD D2:|
|:G2 GF GABd|BAGA BA A2|G2 GF GABd|gfeg fd d2:|

